X: 4180
T: The FOX CHASED
%R: reel
B: James Kerr "Merry Melodies" v.4 p.21 #180
Z: 2016 John Chambers <jc:trillian.mit.edu>
M: C|
L: 1/8
K: A
%%slurgraces yes
%%graceslurs yes
g |\
a2(ec) fdec | bBBc edcB |\
BAGA FAEA | Bcdc edcB |\
A2(EC) FDEC | B,BBc edcB |\
AcBd cedf | (f/g/a) (ec) ({c}B2A) ||
c |\
A2(AE) FEAE | A2(AE) ABcB |\
BAGA FAEA | Bcdc edcB |\
A2(AE) FEAE | A2(Af) edcB |\
AaBa cada | (f/g/a) (ec) ({c}B2A) |]

%%sep 1 1 500
%%sep 1 1 500

